X: 16954
T: Hawthorn Bush, The
R: strathspey
M: 4/4
K: Gmajor
|:G2 Bd e2 dB|GABG AGEF|
G2 Bd e2 dB|1 cAdA cAFA|2 cABG EG G2||
|:f<aag fdde|fdag fd d2|
[1 f<aag fddf|edef gfed:|
[2 bgaf gfef|dfaf gedB||

